X:56
T:Broomstick, The
S:Monks of the Screw
D:Brathar na nl
Z: id:ng-reels-56 transcribed by Alan Ng alan@alan-ng.nospam (net) 23 Dec 2007
M:C|
K:ADor
A3G|EAAG A2Bd|eged efg2|GBAF G2Bd|egdB BAAG|\
EAAG A2Bd|efed Bdef|gage defd|gedB BAAG::eaag agbg|agbg aged|\
eggf geae|geae gedg|eaag agbg|agbg agef|gage defd|gedB BAA2:|*
